X:1
T:Fuga 7
T:Fuga 7
T:BWV 876
T:J.S.Bach
C:J.S.Bach
%%score [ 1 2 3 4 ]
L:1/8
M:2/2
K:Eb
V:1 treble nm="Violin I"
V:2 treble nm="Violin II"
V:3 alto nm="Viola"
V:4 bass nm="Violoncello"
V:1
 z8 | z8 | z8 | z8 | z8 | z8 | z8 | z8 | z8 | z8 | z8 | z8 | z8 | z8 | z8 | z8 | z8 | z8 | z8 | %19
 z8 | B8 | e4 z2 e2 | d2 g4 f2 | e2 ed e2 g2 | c2 f4 e2 | d2 dc d2 f2 | B2 B=A B2 d2 | G2 =A2 B4- | %28
 B4 =A4 | B2 de f2 d2 | B2 ef g2 e2 | f2 ed c2 d2 | e2 z2 z4 | z8 | z8 | z8 | z8 | e8 | b4 z2 a2 | %39
 g2 c'4 b2 | a2 ag a2 c'2 | f2 b4 a2 | g2 gf g2 b2 | e2 ed e2 g2 | c2 de f4- | f4 edef | d2 g4 f2 | %47
 =e2 c2 f4- | f4 _e4- | e4 dcde | c2 f4 e2 | d2 B2 e4- | e4 _d4- | d2 c2 B4 | A4 z4 | z8 | z8 | %57
 z8 | B8 | e4 z2 e2 | d2 g4 f2 | e2 ed e2 g2 | c2 f4 e2 | d2 dc d2 f2 | B2 e2 _d4- | d2 c2 B4- | %66
 B2 AG A4- | A4 _G4 | F8 | E8 |] %70
V:2
 z8 | z8 | z8 | z8 | z8 | z8 | z8 | z8 | z8 | z8 | z8 | z8 | z8 | E8 | B4 z2 A2 | G2 c4 B2 | %16
 A2 AG A2 c2 | F2 B4 A2 | G2 GF G2 B2 | E2 FE F2 A2 | D2 E4 D2 | C2 G2 c4- | c2 B=A B4- | %23
 B4 =A2 G2 | =A3 B/A/ G2 A2 | B4 z2 F2 | G4 z2 D2 | E2 F2 G4 | F6 E2 | D2 FG A4- | A2 GA B2 G2 | %31
 F2 B2 A2 B2 | B,2 z2 z4 | z8 | z8 | z8 | B8 | e4 z2 e2 | d2 g4 f2 | e2 ed e2 g2 | c2 f4 e2 | %41
 d2 dc d2 f2 | B2 BA B2 d2 | G2 =A=B c2 B2 | c4- c=Bcd | =B2 G2 c4- | c4 _B4- | B4 AGAB | %48
 G2 c4 B2 | =A2 F2 B4- | B4 _A4- | A4 GFGA | F2 B4 A2 | B2 A4 G2- | G2 FG A4- | A2 F2 B2 A2 | %56
 G2 GF G2 B2 | E2 A4 G2 | F2 FE F2 GF | E2 GF G2 =AG | F2 B_A B2 d2 | e2 c2 G4 | A2 A4 G2 | %63
 A2 F2 B4- | B2 z2 z2 A2 | G4 z2 F2 | E6 DC | D2 B,2 E4- | E4 D4 | B,8 |] %70
V:3
 z8 | z8 | z8 | z8 | z8 | z8 | B,8 | E4 z2 E2 | D2 G4 F2 | E2 ED E2 G2 | C2 F4 E2 | D2 DC D2 F2 | %12
 B,2 B,A, B,2 D2 | G,2 A,B, C2 B,C | D2 F2 B,2 D2 | E8- | E4 D2 C2 | D3 E/D/ C2 D2 | E2 B,A, B,4- | %19
 B,2 A,G, A,4- | A,2 G,2 F,2 B,2 | G,4 F,4- | F,2 D,2 G,4- | G,2 CB, C4- | C3 D/C/ B,2 C2 | %25
 D4 z2 C2 | D4 z2 A,2 | B,2 C2 _D4 | C2 B,2 C4 | B,4 B,4 | E4 z2 E2 | D2 G4 F2 | E2 ED E2 G2 | %33
 C2 F4 E2 | D2 DC D2 F2 | B,2 B,A, B,2 D2 | G,4 G4- | G2 GF G2 =A2 | B2 DC D2 F2 | G2 GF G4- | %40
 G2 C2 F4- | F2 FE F4- | F2 B,2 E2 z2 | z8 | z8 | z8 | z8 | z8 | z8 | z8 | z8 | z8 | z4 B,4 | %53
 E4 z2 _D2 | C2 F4 E2 | _D2 DC D2 F2 | B,2 E4 _D2 | C2 CB, C2 E2 | A,2 A,G, A,2 B,A, | %59
 G,2 B,A, B,2 C2 | D2 DC D2 F2 | B2 G2 E4- | E2 CB, C2 E2 | F2 D2 G2 D2 | E2 z2 z2 F2 | E4 z2 D2 | %66
 C6 A,2 | F,4 z2 C2 | F,2 F,E, F,2 B,2 | G,8 |] %70
V:4
 E,8 | B,4 z2 A,2 | G,2 C4 B,2 | A,2 A,G, A,2 C2 | F,2 B,4 A,2 | G,2 G,F, G,2 B,2 | %6
 E,2 E,D, E,2 G,2 | C,2 D,E, F,4 | B,,4 B,4- | B,4 =A,2 G,2 | =A,3 B,/A,/ G,2 A,2 | %11
 B,2 B,,2 B,2 _A,2 | G,2 G,,2 G,2 F,2 | E,2 F,G, A,4- | A,2 G,F, G,2 B,2 | E,2 A,G, A,2 C2 | %16
 F,6 G,A, | B,8 | E,6 D,2 | C,4 z2 F,2 | B,,8- | B,,4 =A,,4 | B,,4 z2 G,,2 | C,4 z2 E,2 | %24
 F,4 z2 F,2 | B,2 F,2 B,2 =A,2 | G,2 D,2 G,2 F,2 | E,6 =E,2 | F,8 | B,,4 z4 | z4 E,4 | B,4 z2 A,2 | %32
 G,2 C4 B,2 | A,2 A,G, A,2 C2 | F,2 B,4 A,2 | G,2 G,F, G,2 B,2 | E,2 E,D, E,2 G,2 | C,4 C4 | %38
 B,2 B,A, B,2 D2 | E4 z2 =E2 | F2 F,=E, F,2 =A,2 | B,4 z2 D2 | E2 E,2 EDCB, | C2 C,2 CB,A,G, | %44
 A,2 A,,2 A,2 G,F, | G,8- | G,F,G,A, G,F,=E,D, | C,8- | C,B,,C,D, C,B,,=A,,G,, | F,,8- | %50
 F,,E,F,G, F,E,D,C, | B,,8- | B,,A,B,C B,A,G,F, | G,2 A,2 D,2 =E,2 | F,4- F,E,_D,C, | %55
 B,,4- B,,B,,C,_D, | E,4- E,E,,F,,G,, | A,,B,,C,_D, E,4- | E,4 =D,4 | E,8 | B,4 z2 A,2 | %61
 G,2 C4 B,2 | A,2 A,G, A,2 C2 | F,2 B,4 A,2 | G,2 G,F, G,2 B,2 | E,2 E,D, E,2 G,2 | C,2 D,E, F,4 | %67
 B,,4 =A,,4 | B,,8 | E,,8 |] %70

